X:474
T:The flowers of Edinburgh
R:Hornpipe
O:Scotland, Ireland
B:O'Neill's 1746
B:Kerr's First p23
S:O'Neill's and memory
Z:Transcription, arrangement, chords:Mike Long
M:4/4
L:1/8
K:G
GE|\
"G"D2DE G2GA|BGBd cBAG|"D"FGEF DEFG|"D"AFdF "C"E2GE|\
"G"D2DE G2GA|
BGBd "C"efge|"G"dcBA "D"GFGA|"G"B2G2 G2:|\
|:(3(def)|\
"G"g2gf gbag|"D"f2fe fagf|
"C"edef gfed|"Em"B2e2 e2 (3(gfe)|\
"G"dBGB d2 (3(Bcd)|"C"edef g2ge|"D"dcBA GFGA|"G"B2G2 G2:|
